X: 15778
T: Good Pig, The
R: jig
M: 6/8
K: Dmixolydian
A|:D2f fef|ged c2A|GFG EGF|GEG cAG|
D2f fef|ged c2A|GFG cAG|1 AFA d2A:|2 ABc d2A||
|:def a2f|a2f ged|cde gab|c’ba ged|
cAG EFG|cAG EFE|DEF GFG|1 AFA d2A:|2 ABc d3||

